X: 1
T:Piper in the Meadow Straying
R:set dance
Z:id:hn-setdance-5
M:C|
K:G
Bc|dedc B2BA|GFGA B2Gd|ABcA GAFA|G2B2 B2 (3ABc|
dedc (3Bcd BA|~G3A B2Gd|ABcA GAFA|G2BA G2:|
|:z2|~A3B c2A2|BGBc d2dB|cAcd e2A2|d2de f2fe|
dedc B2BA|GFGA B2Gd|ABcA GAFA|G2B2 B2 (3ABc|
dedc (3Bcd BA|~G3A B2Gd|ABcA GAFA|G2BA G2:|
